apps/documenteditor/main/resources/img/toolbar/2.5x/big/btn-next-field.svg

<svg width="28" height="28" viewBox="0 0 28 28" fill="none" xmlns="http://www.w3.org/2000/svg">
<path fill-rule="evenodd" clip-rule="evenodd" d="M22 7H5L5 18H11V19H5C4.44771 19 4 18.5523 4 18V7C4 6.44772 4.44772 6 5 6H22C22.5523 6 23 6.44772 23 7V13H22V7ZM17.793 15.2072L20.5858 18H13V20H20.5859L17.793 22.793L19.2072 24.2072L24.4143 19.0001L19.2072 13.793L17.793 15.2072Z" fill="black"/>
</svg>

<svg xmlns="http://www.w3.org/2000/svg" width="28" height="28" fill="none"><path fill="#000" d="m24.414 19-5.207 5.207-1.414-1.414L20.586 20H13v-2h7.586l-2.793-2.793 1.414-1.414L24.414 19Z"/><path fill="#000" d="M22 6a1 1 0 0 1 1 1v6h-1V7H5v11h6v1H5l-.103-.005a1 1 0 0 1-.892-.893L4 18V7a1 1 0 0 1 1-1h17Z"/></svg>
